!!!COM: Bach, Johann Sebastian
!!!OTL@@DE: 90. Hast du denn, Liebster, dein Angesicht
!!!OTL@EN: Hast Thou then, Jesus, hidden Thy countenance
!!!SCA: BWV 57.8
**harm	**root	**kern	**kern	**kern	**kern
*staff2	*	*staff2	*staff2	*staff1	*staff1
*Iorgan	*Ipiano	*Iorgan	*Iorgan	*Iorgan	*Iorgan
*>[A,A,B]	*>[A,A,B]	*>[A,A,B]	*>[A,A,B]	*>[A,A,B]	*>[A,A,B]
*>norep[A,B]	*>norep[A,B]	*>norep[A,B]	*>norep[A,B]	*>norep[A,B]	*>norep[A,B]
*>A	*>A	*>A	*>A	*>A	*>A
!	!	!bass	!tenor	!alto	!sprno
*	*	*clefF4	*clefF4	*clefG2	*clefG2
*k[f#c#g#d#]	*k[f#c#g#d#]	*k[f#c#g#d#]	*k[f#c#g#d#]	*k[f#c#g#d#]	*k[f#c#g#d#]
*E:	*E:	*E:	*E:	*E:	*E:
*M3/4	*M3/4	*M3/4	*M3/4	*M3/4	*M3/4
*MM80	*MM80	*MM80	*MM80	*MM80	*MM80
=1-	=1-	=1-	=1-	=1-	=1-
I	4BB-	4e	4g#	4b	4ee
I	4BB-	4e	4g#	4b	4ee
Vb	4FF	4d#	4f#	4b	4bb
=2	=2	=2	=2	=2	=2
I	4.BB-	4.e	4.e	4.b	4.gg#
Vb	8FF	8d#	8f#	8b	8ff#
vi	4GG	4c#	8g#L	4cc#	4ee
.	.	.	8a#J	.	.
=3	=3	=3	=3	=3	=3
V	4FF	4B	4b	4f#	4dd#
Vc	4FF	4F#	4b	4f#	8eeL
.	.	.	.	.	8dd#
V7d	4FF	4A	4d#	4f#	8cc#
.	.	.	.	.	8bJ
=4	=4	=4	=4	=4	=4
Ib	4BB-	4G#	4e	4b	4ee
viiob	4AA	4F#	4A	8cc#L	4ff#
.	.	.	.	8dd#	.
I	4BB-	4E	4B	8ee	8gg#L
.	.	.	.	8ff#J	8aaJ
=5	=5	=5	=5	=5	=5
V7	2FF	2B	4b	2dd#	2ff#
.	.	.	4a	.	.
I;	4BB-;	4E;	4g#;	4b;	4ee;
=6:|!	=6:|!	=6:|!	=6:|!	=6:|!	=6:|!
*>B	*>B	*>B	*>B	*>B	*>B
I	4BB-	4E	4g#	4ee	4bb
viiob	4AA	4F#	4a	4dd#	8aaL
.	.	.	.	.	8gg#
Ib	4BB-	4G#	4b	4b	8ff#
.	.	.	.	.	8eeJ
=7	=7	=7	=7	=7	=7
!!linebreak: 2
IV;	2EE-;	2A;	2a;	2ee;	2ccc#;
r	4r	4r	4r	4r	4r
=8	=8	=8	=8	=8	=8
I	4BB-	4e	4b	4ee	4gg#
IVb	4EE-	8d#L	4cc#	4ee	4aa
.	.	8c#	.	.	.
V	4FF	8B	4f#	8dd#L	4bb
.	.	8AJ	.	8cc#J	.
=9	=9	=9	=9	=9	=9
iii7	4DD	4G#	4f#	4b	4bb
Ib	4BB-	4G#	4e	4ee	8ccc#L
.	.	.	.	.	8bb
IV	4EE-	4A	4e	4cc#	8aa
.	.	.	.	.	8gg#J
=10	=10	=10	=10	=10	=10
V;	2FF;	2B;	2b;	2dd#;	2ff#;
r	4r	4r	4r	4r	4r
=11	=11	=11	=11	=11	=11
Ib	4BB-	4G#	4e	4b	4b
Vb/V	4CC	4A#	8d#L	4f#	4cc#
.	.	.	8c#J	.	.
viioD7/VI	4FF#	4B#	4ay	4f#	4dd#
=12	=12	=12	=12	=12	=12
vi	4GG	4c#	4g#	4e	4ee
Vb	4FF	4d#	4f#	4b	4ff#
I	4BB-	4e	4e	4b	8gg#L
.	.	.	.	.	8aaJ
=13	=13	=13	=13	=13	=13
Ic	4BB-	2B	4e	4.b	2ff#
V7	4FF	.	4d#	.	.
.	.	.	.	8a	.
I;	4BB-;	4E;	4B;	4g#;	4ee;
==	==	==	==	==	==
*-	*-	*-	*-	*-	*-
!!!ENC: Craig Stuart Sapp
!!!END: 2004/12/06/
!!!ONB: Harmony and Root analysis done manually by Craig Sapp
!!chor2scor: -l 2 -s 0.6 -o %b.pmx
